X:1
T: The Swan
C:
R:Strathspey
Q: 128
K:D
M:4/4
L:1/16
|:a2|((3f2e2d2) A3d B3A G4|A4 f3d ce3 ((3e2f2g2) |f3A e3A ((3e2f2a2) f3e|d3f c3a BA3 A2a2|
((3f2g2a2) A3d B3A G3B|Ba3 ((3f2e2d2) ce3 ((3e2f2g2) |((3a2f2d2) ((3A2e2f2) ((3g2e2c2) ((3A2e2g2) |A2a2 ((3g2e2c2) d4 d2ef|
B3B Bf3 A3A Ad3|c3c ce3 d3c ((3d2e2f2) |e3d ((3e2f2g2) A3e f3e|d3e c3g GA3 ((3A2e2f2) |
A3A Ad3 B3B Bd3|A3A Af3 e3A ((3e2f2g2) |((3a2f2d2) ((3A2e2f2) ((3g2e2c2) ((3A2e2g2) |A2a2 ((3g2e2c2) d4 d2:|
